X: 6582
T: Catriona's
R: reel
M: 4/4
K: Dmajor
A,B,DE EDEF|:G3F EDB,D|A,3B, DA,B,D|E2 EF EDB,D|GAED EDEF|
G3F EDB,D|A,3B, DA,B,D|E2 EF EDEF|1 AFED DEED:|2 AFED DFAd||
|:B3A2 F ED|DAAD EFED|DAAD E2 DC|DAAD EFED|
B3A2 F ED|DAAD EFED|DAAD EDEF|1 AFED DFAd:|2 AFED EDEF||

